X: 515
T: Polska efter Olof Tillman
S: efter Olof Tillman
S: Känd genom Hedningarna
O: Dalarna, Dala-Floda
R: Polska
D: Hedningarna
Z: Håkan Lidén, 2008-09-27
M: 3/4
L: 1/8
K: Em
B/c/B/c/ Bc de | c/A/c/e/ ed dB | B/c/B/c/ Bc de | cA B4 :|
|: E>A cB ^GA | F/D/F/A/ A^G GE | E>A cB ^GA | F/A/F/^G/ E4 :|
(:musicend:)

(:music:)
